app/assets/images/icons/active/envelope.svg

<svg width="32" height="232" viewBox="0 0 32 232" xmlns="http://www.w3.org/2000/svg" xmlns:sketch="http://www.bohemiancoding.com/sketch/ns"><title>envelope</title><g sketch:type="MSPage" fill="none"><path d="M23.625 127h-15.248c-2.688 0-4.877 2.187-4.877 4.875v10.089c0 2.688 2.189 4.875 4.877 4.875h15.248c2.689 0 4.877-2.187 4.877-4.875v-10.089c0-2.688-2.188-4.875-4.877-4.875zm-15.248 2.869h15.248c.969 0 1.777.686 1.967 1.599l-9.49 5.591-9.69-5.597c.192-.911.998-1.593 1.965-1.593zm15.248 14.102h-15.248c-1.109 0-2.008-.899-2.008-2.007v-7.656l9.116 5.265.009.004.02.01.129.062.004.001c.15.06.306.091.46.091.159 0 .315-.031.463-.091l.008-.002.129-.063.022-.01.009-.007 8.895-5.239v7.635c0 1.108-.899 2.007-2.008 2.007zm0 0" fill="#206FAC" sketch:type="MSShapeGroup"/><path d="M23.625 87h-15.248c-2.688 0-4.877 2.187-4.877 4.875v10.089c0 2.688 2.189 4.875 4.877 4.875h15.248c2.689 0 4.877-2.187 4.877-4.875v-10.089c0-2.688-2.188-4.875-4.877-4.875zm-15.248 2.869h15.248c.969 0 1.777.686 1.967 1.599l-9.49 5.591-9.69-5.597c.192-.911.998-1.593 1.965-1.593zm15.248 14.102h-15.248c-1.109 0-2.008-.899-2.008-2.007v-7.656l9.116 5.265.009.004.02.01.129.062.004.001c.15.06.306.091.46.091.159 0 .315-.031.463-.091l.008-.002.129-.063.022-.01.009-.007 8.895-5.239v7.635c0 1.108-.899 2.007-2.008 2.007zm0 0" fill="#fff" sketch:type="MSShapeGroup"/><path d="M23.625 47h-15.248c-2.688 0-4.877 2.187-4.877 4.875v10.089c0 2.688 2.189 4.875 4.877 4.875h15.248c2.689 0 4.877-2.187 4.877-4.875v-10.089c0-2.688-2.188-4.875-4.877-4.875zm-15.248 2.869h15.248c.969 0 1.777.686 1.967 1.599l-9.49 5.591-9.69-5.597c.192-.911.998-1.593 1.965-1.593zm15.248 14.102h-15.248c-1.109 0-2.008-.899-2.008-2.007v-7.656l9.116 5.265.009.004.02.01.129.062.004.001c.15.06.306.091.46.091.159 0 .315-.031.463-.091l.008-.002.129-.063.022-.01.009-.007 8.895-5.239v7.635c0 1.108-.899 2.007-2.008 2.007zm0 0" fill="#67737B" sketch:type="MSShapeGroup"/><path d="M23.625 7h-15.248c-2.688 0-4.877 2.187-4.877 4.875v10.089c0 2.688 2.189 4.875 4.877 4.875h15.248c2.689 0 4.877-2.187 4.877-4.875v-10.089c0-2.688-2.188-4.875-4.877-4.875zm-15.248 2.869h15.248c.969 0 1.777.686 1.967 1.599l-9.49 5.591-9.69-5.597c.192-.911.998-1.593 1.965-1.593zm15.248 14.102h-15.248c-1.109 0-2.008-.899-2.008-2.007v-7.656l9.116 5.265.009.004.02.01.129.062.004.001c.15.06.306.091.46.091.159 0 .315-.031.463-.091l.008-.002.129-.063.022-.01.009-.007 8.895-5.239v7.635c0 1.108-.899 2.007-2.008 2.007zm0 0" fill="#3A434E" sketch:type="MSShapeGroup"/></g></svg>

<?xml version="1.0" encoding="UTF-8" standalone="no"?>
<svg width="32px" height="232px" viewBox="0 0 32 232" version="1.1" xmlns="http://www.w3.org/2000/svg" xmlns:xlink="http://www.w3.org/1999/xlink" xmlns:sketch="http://www.bohemiancoding.com/sketch/ns">
    <title>envelope</title>
    <description>Created with Sketch (http://www.bohemiancoding.com/sketch)</description>
    <defs></defs>
    <g id="Actions" stroke="none" stroke-width="1" fill="none" fill-rule="evenodd" sketch:type="MSPage">
        <path d="M23.625,127 L8.377,127 C5.689,127 3.5,129.187 3.5,131.875 L3.5,141.964 C3.5,144.652 5.689,146.839 8.377,146.839 L23.625,146.839 C26.314,146.839 28.502,144.652 28.502,141.964 L28.502,131.875 C28.502,129.187 26.314,127 23.625,127 L23.625,127 L23.625,127 L23.625,127 Z M8.377,129.869 L23.625,129.869 C24.594,129.869 25.402,130.555 25.592,131.468 L16.102,137.059 L6.412,131.462 C6.604,130.551 7.41,129.869 8.377,129.869 C8.377,129.869 7.41,129.869 8.377,129.869 L8.377,129.869 L8.377,129.869 Z M23.625,143.971 L8.377,143.971 C7.268,143.971 6.369,143.072 6.369,141.964 L6.369,134.308 L15.485,139.573 C15.488,139.575 15.492,139.576 15.494,139.577 C15.5,139.581 15.506,139.583 15.514,139.587 C15.555,139.611 15.598,139.631 15.643,139.649 C15.643,139.649 15.645,139.65 15.647,139.65 C15.797,139.71 15.953,139.741 16.107,139.741 C16.266,139.741 16.422,139.71 16.57,139.65 C16.572,139.649 16.574,139.648 16.578,139.648 C16.621,139.629 16.664,139.608 16.707,139.585 C16.715,139.581 16.721,139.578 16.729,139.575 C16.733,139.572 16.735,139.57 16.738,139.568 L25.633,134.329 L25.633,141.964 C25.633,143.072 24.734,143.971 23.625,143.971 L23.625,143.971 Z M23.625,143.971" id="envelope--lp-blue" fill="#206FAC" sketch:type="MSShapeGroup"></path>
        <path d="M23.625,87 L8.377,87 C5.689,87 3.5,89.187 3.5,91.875 L3.5,101.964 C3.5,104.652 5.689,106.839 8.377,106.839 L23.625,106.839 C26.314,106.839 28.502,104.652 28.502,101.964 L28.502,91.875 C28.502,89.187 26.314,87 23.625,87 L23.625,87 L23.625,87 L23.625,87 Z M8.377,89.869 L23.625,89.869 C24.594,89.869 25.402,90.555 25.592,91.468 L16.102,97.059 L6.412,91.462 C6.604,90.551 7.41,89.869 8.377,89.869 C8.377,89.869 7.41,89.869 8.377,89.869 L8.377,89.869 L8.377,89.869 Z M23.625,103.971 L8.377,103.971 C7.268,103.971 6.369,103.072 6.369,101.964 L6.369,94.308 L15.485,99.573 C15.488,99.575 15.492,99.576 15.494,99.577 C15.5,99.581 15.506,99.583 15.514,99.587 C15.555,99.611 15.598,99.631 15.643,99.649 C15.643,99.649 15.645,99.65 15.647,99.65 C15.797,99.71 15.953,99.741 16.107,99.741 C16.266,99.741 16.422,99.71 16.57,99.65 C16.572,99.649 16.574,99.648 16.578,99.648 C16.621,99.629 16.664,99.608 16.707,99.585 C16.715,99.581 16.721,99.578 16.729,99.575 C16.733,99.572 16.735,99.57 16.738,99.568 L25.633,94.329 L25.633,101.964 C25.633,103.072 24.734,103.971 23.625,103.971 L23.625,103.971 Z M23.625,103.971" id="envelope--white" fill="#FFFFFF" sketch:type="MSShapeGroup"></path>
        <path d="M23.625,47 L8.377,47 C5.689,47 3.5,49.187 3.5,51.875 L3.5,61.964 C3.5,64.652 5.689,66.839 8.377,66.839 L23.625,66.839 C26.314,66.839 28.502,64.652 28.502,61.964 L28.502,51.875 C28.502,49.187 26.314,47 23.625,47 L23.625,47 L23.625,47 L23.625,47 Z M8.377,49.869 L23.625,49.869 C24.594,49.869 25.402,50.555 25.592,51.468 L16.102,57.059 L6.412,51.462 C6.604,50.551 7.41,49.869 8.377,49.869 C8.377,49.869 7.41,49.869 8.377,49.869 L8.377,49.869 L8.377,49.869 Z M23.625,63.971 L8.377,63.971 C7.268,63.971 6.369,63.072 6.369,61.964 L6.369,54.308 L15.485,59.573 C15.488,59.575 15.492,59.576 15.494,59.577 C15.5,59.581 15.506,59.583 15.514,59.587 C15.555,59.611 15.598,59.631 15.643,59.649 C15.643,59.649 15.645,59.65 15.647,59.65 C15.797,59.71 15.953,59.741 16.107,59.741 C16.266,59.741 16.422,59.71 16.57,59.65 C16.572,59.649 16.574,59.648 16.578,59.648 C16.621,59.629 16.664,59.608 16.707,59.585 C16.715,59.581 16.721,59.578 16.729,59.575 C16.733,59.572 16.735,59.57 16.738,59.568 L25.633,54.329 L25.633,61.964 C25.633,63.072 24.734,63.971 23.625,63.971 L23.625,63.971 Z M23.625,63.971" id="envelope--body-grey" fill="#67737B" sketch:type="MSShapeGroup"></path>
        <path d="M23.625,7 L8.377,7 C5.689,7 3.5,9.187 3.5,11.875 L3.5,21.964 C3.5,24.652 5.689,26.839 8.377,26.839 L23.625,26.839 C26.314,26.839 28.502,24.652 28.502,21.964 L28.502,11.875 C28.502,9.187 26.314,7 23.625,7 L23.625,7 L23.625,7 L23.625,7 Z M8.377,9.869 L23.625,9.869 C24.594,9.869 25.402,10.555 25.592,11.468 L16.102,17.059 L6.412,11.462 C6.604,10.551 7.41,9.869 8.377,9.869 C8.377,9.869 7.41,9.869 8.377,9.869 L8.377,9.869 L8.377,9.869 Z M23.625,23.971 L8.377,23.971 C7.268,23.971 6.369,23.072 6.369,21.964 L6.369,14.308 L15.485,19.573 C15.488,19.575 15.492,19.576 15.494,19.577 C15.5,19.581 15.506,19.583 15.514,19.587 C15.555,19.611 15.598,19.631 15.643,19.649 C15.643,19.649 15.645,19.65 15.647,19.65 C15.797,19.71 15.953,19.741 16.107,19.741 C16.266,19.741 16.422,19.71 16.57,19.65 C16.572,19.649 16.574,19.648 16.578,19.648 C16.621,19.629 16.664,19.608 16.707,19.585 C16.715,19.581 16.721,19.578 16.729,19.575 C16.733,19.572 16.735,19.57 16.738,19.568 L25.633,14.329 L25.633,21.964 C25.633,23.072 24.734,23.971 23.625,23.971 L23.625,23.971 Z M23.625,23.971" id="envelope--title-grey" fill="#3A434E" sketch:type="MSShapeGroup"></path>
    </g>
</svg>
